X:7
T:Garryowen
M:6/8
L:1/8
R:Jig
B:P.H. Hughes -- Gems from the Emerald Isle (London, c. 1860?, No. 35, p. 9)
Z:AK/Fiddler's Companion
K:Bb
b/a/|gfe d>cB|d>ed dba|gfe d>cB|c>dc cba|
gfe d>cB|d>ed d2f|fga bfd|c>dc c2||
d/e/|Tf2d f2d|f2d f2b|Tg2e g2e|g2e g2a|
b2c' d'2c'|bag Tgfd|fga b2d|c>dc c2||

